X: 19
I: linebreak $
T: Confess (his tune)
T: for two lords and four ladies
C: 
P: ABB
K: D minor
M: 6/4
L: 1/8
P: A
"Dm"D4"A"E2 "Dm"F4"Gm"G2 | "Dm"A4A2 A4A2 | "Gm"B6 "Dm"A4A2 | "Gm"d6 "A"^c6 | "Dm"D4"A"E2 "Dm"F4"Gm"G2 | "Dm"A4A2 A4A2 | 
"Gm"B6 "Dm"A4A2 | "Gm"d6 "A"^c6 |: 
P: B
"Am"e4c2 "Dm"f4d2 | "Am"e2c4 A4"Gm"B2 | "F"c2A4 "C"G4"F"A2 | "F"A2"Csus4"G4 "F"A6 | 
"F"F4"C"G2 "F"A3BA2 | "Gm"B2"Dm"A4 "Gm"G6 | "F"A4"Dm"d2 "A"^c4"Dm"d2 | "A"e2^c4 "D"d6 :| 

